img/svg/net/ubrowser.svg

<?xml version="1.0" encoding="iso-8859-1"?>
<!-- Generator: Adobe Illustrator 21.0.2, SVG Export Plug-In . SVG Version: 6.00 Build 0)  -->
<svg version="1.1" id="&#x56FE;&#x5C42;_1" xmlns="http://www.w3.org/2000/svg" xmlns:xlink="http://www.w3.org/1999/xlink" x="0px"
	 y="0px" viewBox="0 0 16 16" style="enable-background:new 0 0 16 16;" xml:space="preserve">
<g>
	<g>
		<path d="M1,1v14h14V1H1z M7,7H6v1h1v2H6v1H2v-1h4V8H2V7h4V5H2V4h4v1h1V7z M14,10h-1v1h-3H9V4h1h3v1h1V10z"/>
	</g>
	<g>
		<polygon points="12,5 10,5 10,10 12,10 12,9 13,9 13,6 12,6 		"/>
	</g>
</g>
</svg>

<svg xmlns="http://www.w3.org/2000/svg" viewBox="0 0 16 16"><title>ubrowser</title><path d="M1,1V15H15V1ZM7,7H6V8H7v2H6v1H2V10H6V8H2V7H6V5H2V4H6V5H7Zm7,3H13v1H9V4h4V5h1Z"/><polygon points="12 5 10 5 10 10 12 10 12 9 13 9 13 6 12 6 12 5"/></svg>
